X: 25081
T: Maids Of Kintail, The
R: jig
M: 6/8
K: Adorian
|:efe edB|dBA ABA|GAG GB/c/d|BAB Geg|
aba efg|aba e2f|gfg Bcd|ecA ABd|1 gfg Bcd:|2 ecA Aeg||
aba efg|aba e2f|gfg d^cd|gbg efg|
[1 aba efg|aba e2f|gfg Bcd|ecA Aeg:|
[2 agf gfe|fed edB|gbg Bcd|ecA A3||

